src/actions/22/view-currency-list.svg

<svg viewBox="0 0 22 22" xmlns="http://www.w3.org/2000/svg">
    <style type="text/css" id="current-color-scheme">
        .ColorScheme-Text {
            color:#363636;
        }
    </style>
<path
    d="m7 5a4 4 0 0 0 -4 4h-1v1h1v2h-1v1h1a4 4 0 0 0 4 4 4 4 0 0 0 3.458984-2h-1.2265621a3 3 0 0 1 -2.2324219 1 3 3 0 0 1 -3-3h5v-1h-5v-2h6v-1h-6a3 3 0 0 1 3-3 3 3 0 0 1 2.2304688 1h1.2285152a4 4 0 0 0 -3.458984-2zm5.292969 0 3.707031 3.7070312v1.2929688h-3v1h3v2h-3v1h3v3h1v-3h3v-1h-3v-2h3v-1h-3v-1.2929688l3.707031-3.7070312h-1.414062l-2.792969 2.7929688-2.792969-2.7929688z"
    class="ColorScheme-Text"
    fill="currentColor"
    />
</svg>

<svg xmlns="http://www.w3.org/2000/svg" viewBox="0 0 22 22">
    <path fill="currentColor" d="M7 5a4 4 0 0 0-4 4H2v1h1v2H2v1h1a4 4 0 0 0 4 4 4 4 0 0 0 3.459-2H9.232A3 3 0 0 1 7 16a3 3 0 0 1-3-3h5v-1H4v-2h6V9H4a3 3 0 0 1 3-3 3 3 0 0 1 2.23 1h1.229A4 4 0 0 0 7 5zm5.293 0L16 8.707V10h-3v1h3v2h-3v1h3v3h1v-3h3v-1h-3v-2h3v-1h-3V8.707L20.707 5h-1.414L16.5 7.793 13.707 5z" style="color:#050505;opacity:.7"/>
</svg>
